Origami/64x64/apps/electrum-ltc.svg

<svg width="64" height="64" version="1.1" viewBox="0 0 64 64" xmlns="http://www.w3.org/2000/svg">
 <circle cx="32" cy="33" r="28" style="opacity:.2"/>
 <circle cx="32" cy="32" r="28" style="fill:#3399cc"/>
 <path d="m24.724609 9.054893c-2.044499-0.046988-3.994912 0.3946816-5.740234 1.402344-3.756835 2.169008-5.691723 6.483025-5.984375 11.576171-4.263028 2.799675-7.03125 6.629635-7.03125 10.966797s2.768222 8.167122 7.03125 10.966797c0.292859 5.092691 2.229751 9.407309 5.986328 11.576172 3.756298 2.168699 8.457336 1.68691 13.013672-0.605469 4.556024 2.291595 9.259756 2.773919 13.015625 0.605469 3.756354-2.168732 5.689557-6.482026 5.982422-11.574219 4.26432-2.799801 7.033203-6.63082 7.033203-10.96875s-2.768883-8.168949-7.033203-10.96875c-0.292694-5.092566-2.225857-9.405365-5.982422-11.574218-3.757371-2.1693196-8.461801-1.6885138-13.019531 0.605468-2.438782-1.226763-4.916298-1.9536835-7.271485-2.007812zm14.550782 2.05664c1.722294-0.04466 3.317464 0.324384 4.710937 1.128906 2.689089 1.552547 4.330075 4.575987 4.832031 8.511719-2.380739-1.237971-5.118377-2.205742-8.103515-2.853515-2.052821-2.260475-4.255794-4.147672-6.517578-5.589844 1.762929-0.738291 3.477103-1.155752 5.078125-1.197266zm-14.550782 2e-3c1.599602 0.04168 3.312731 0.457874 5.074219 1.195313-2.261506 1.442313-4.465053 3.329441-6.517578 5.589844-2.984329 0.647914-5.721459 1.61568-8.101562 2.853515 0.502618-3.935032 2.147273-6.959419 4.835937-8.511719 1.393473-0.804522 2.987054-1.171821 4.708984-1.126953zm7.273438 2.269531c1.760214 0.995379 3.524678 2.316185 5.226562 3.90625-1.688735-0.2094-3.435144-0.320359-5.224609-0.320359-1.790836 0-3.538576 0.110692-5.228516 0.320312 1.701788-1.590241 3.466388-2.910631 5.226563-3.90625zm0.001953 5.648391c2.672775 0 5.234451 0.268526 7.632812 0.744141 1.611985 1.839666 3.12816 3.92503 4.464844 6.240234 1.336658 2.315159 2.38486 4.668888 3.171875 6.984375-0.787149 2.315336-1.8355 4.669706-3.171875 6.984375-1.336641 2.315131-2.851149 4.400932-4.46289 6.240234-2.398903 0.475853-4.961289 0.744141-7.634766 0.744141s-5.235863-0.268288-7.634766-0.744141c-1.611798-1.839344-3.12816-3.923077-4.464843-6.238281-1.336658-2.315159-2.384675-4.670519-3.171875-6.986328 0.787026-2.315588 1.835157-4.669112 3.171875-6.984375 1.336637-2.315124 2.852922-4.400615 4.464843-6.240234 2.398903-0.475853 4.961289-0.744141 7.634766-0.744141zm-10.994141 1.587891c-1.025733 1.358194-1.993734 2.815155-2.888671 4.365234-0.895697 1.55139-1.672303 3.120883-2.335938 4.689453-0.526572-2.269822-0.789491-4.459552-0.771484-6.482422 1.742013-1.026863 3.76848-1.893633 5.996093-2.572265zm21.986329 0c2.227701 0.67852 4.253944 1.545497 5.996093 2.572265 0.01799 2.02253-0.243129 4.211064-0.769531 6.480469-0.663325-1.567445-1.440885-3.135271-2.335938-4.685547-0.894944-1.550091-1.864882-3.008984-2.890624-4.367187zm-14.892579 2.380859-1.933593 8.490234-3.365235 0.509766-0.800781 3 3.486328-0.529297l-1.486328 6.529297h14.5l1.400391-4h-8.990235l0.791016-3.470703 3.498047-0.529297 0.800781-3-3.619141 0.548828 1.71875-7.548828zm22.916016 1.556641c3.15693 2.402886 4.953125 5.338547 4.953125 8.443359s-1.796195 6.040473-4.953125 8.443359c-0.117873-2.680169-0.648888-5.533205-1.580078-8.441406 0.932179-2.909672 1.461935-5.763998 1.580078-8.445312zm-38.033203 2e-3c0.118147 2.680234 0.648535 5.532912 1.580078 8.441406-0.931355 2.908485-1.462195 5.760983-1.580078 8.441406-3.1555463-2.402623-4.951172-5.337368-4.951172-8.441453s1.7956257-6.03883 4.951172-8.441406zm2.798828 11.769484c0.663569 1.568152 1.440573 3.136684 2.335938 4.6875 0.894937 1.550079 1.863031 3.007202 2.888671 4.365234-2.227613-0.678632-4.25408-1.545402-5.996093-2.572265-0.01817-2.022543 0.245372-4.211281 0.771484-6.480469zm32.4375 0c0.526173 2.269329 0.787701 4.457809 0.769531 6.480469-1.742149 1.026768-3.768392 1.893745-5.996093 2.572265 1.025647-1.358041 1.993726-2.815143 2.888671-4.365234 0.895049-1.550271 1.674474-3.119898 2.337891-4.6875zm-33.039062 8.919922c2.380103 1.237835 5.117233 2.205602 8.101562 2.853515 2.052405 2.260126 4.256028 4.145685 6.517578 5.587891-3.657685 1.531273-7.095251 1.620249-9.783203 0.06836-2.688664-1.5523-4.333319-4.574732-4.835937-8.509765zm33.638671 0c-0.502242 3.934815-2.145321 6.957466-4.833984 8.509765-2.68841 1.552155-6.12835 1.463457-9.787109-0.06836 2.261754-1.442047 4.464942-3.327763 6.517578-5.587891 2.985138-0.647773 5.722776-1.615545 8.103515-2.853515zm-22.044921 3.462891c1.689337 0.209462 3.436411 0.320312 5.226562 0.320312 1.789465 0 3.535874-0.111007 5.224609-0.320312-1.702434 1.590428-3.4656 2.910729-5.226562 3.90625-1.760232-0.995369-3.522889-2.316488-5.224609-3.90625z" style="opacity:.2"/>
 <path d="m24.724609 8.0546875c-2.044499-0.046988-3.994912 0.3946816-5.740234 1.4023437-3.756835 2.1690088-5.691723 6.4830258-5.984375 11.576172-4.263028 2.799675-7.03125 6.629635-7.03125 10.966797s2.768222 8.167122 7.03125 10.966797c0.292859 5.092691 2.229751 9.407309 5.986328 11.576172 3.756298 2.168699 8.457336 1.68691 13.013672-0.605469 4.556024 2.291595 9.259756 2.773919 13.015625 0.605469 3.756354-2.168732 5.689557-6.482026 5.982422-11.574219 4.26432-2.799801 7.033203-6.63082 7.033203-10.96875s-2.768883-8.168949-7.033203-10.96875c-0.292694-5.092566-2.225857-9.405365-5.982422-11.574219-3.757371-2.1693193-8.461801-1.6885135-13.019531 0.6054688-2.438782-1.2267635-4.916298-1.953684-7.271485-2.0078125zm14.550782 2.0566405c1.722294-0.04466 3.317464 0.324384 4.710937 1.128906 2.689089 1.552547 4.330075 4.575987 4.832031 8.511719-2.380739-1.237971-5.118377-2.205742-8.103515-2.853515-2.052821-2.260475-4.255794-4.147672-6.517578-5.589844 1.762929-0.738291 3.477103-1.155752 5.078125-1.197266zm-14.550782 0.001953c1.599602 0.04168 3.312731 0.457874 5.074219 1.195313-2.261506 1.442313-4.465053 3.329441-6.517578 5.589844-2.984329 0.647914-5.721459 1.61568-8.101562 2.853515 0.502618-3.935032 2.147273-6.959419 4.835937-8.511719 1.393473-0.804522 2.987054-1.171821 4.708984-1.126953zm7.273438 2.269531c1.760214 0.995379 3.524678 2.316185 5.226562 3.90625-1.688735-0.209353-3.435144-0.320312-5.224609-0.320312-1.790836 0-3.538576 0.110692-5.228516 0.320312 1.701788-1.590241 3.466388-2.910631 5.226563-3.90625zm0.001953 5.648438c2.672775 0 5.234451 0.268526 7.632812 0.744141 1.611985 1.839666 3.12816 3.92503 4.464844 6.240234 1.336658 2.315159 2.38486 4.668888 3.171875 6.984375-0.787149 2.315336-1.8355 4.669706-3.171875 6.984375-1.336641 2.315131-2.851149 4.400932-4.46289 6.240234-2.398903 0.475853-4.961289 0.744141-7.634766 0.744141s-5.235863-0.268288-7.634766-0.744141c-1.611798-1.839344-3.12816-3.923077-4.464843-6.238281-1.336658-2.315159-2.384675-4.670519-3.171875-6.986328 0.787026-2.315588 1.835157-4.669112 3.171875-6.984375 1.336637-2.315124 2.852922-4.400615 4.464843-6.240234 2.398903-0.475853 4.961289-0.744141 7.634766-0.744141zm-10.994141 1.587891c-1.025733 1.358194-1.993734 2.815155-2.888671 4.365234-0.895697 1.55139-1.672303 3.120883-2.335938 4.689453-0.526572-2.269822-0.789491-4.459552-0.771484-6.482422 1.742013-1.026863 3.76848-1.893633 5.996093-2.572265zm21.986329 0c2.227701 0.67852 4.253944 1.545497 5.996093 2.572265 0.01799 2.02253-0.243129 4.211064-0.769531 6.480469-0.663325-1.567445-1.440885-3.135271-2.335938-4.685547-0.894944-1.550091-1.864882-3.008984-2.890624-4.367187zm-14.892579 2.380859l-1.933593 8.490234-3.365235 0.509766-0.800781 3 3.486328-0.529297-1.486328 6.529297h14.5l1.400391-4h-8.990235l0.791016-3.470703 3.498047-0.529297 0.800781-3-3.619141 0.548828 1.71875-7.548828h-6zm22.916016 1.556641c3.15693 2.402886 4.953125 5.338547 4.953125 8.443359s-1.796195 6.040473-4.953125 8.443359c-0.117873-2.680169-0.648888-5.533205-1.580078-8.441406 0.932179-2.909672 1.461935-5.763998 1.580078-8.445312zm-38.033203 0.001953c0.118147 2.680234 0.648535 5.532912 1.580078 8.441406-0.931355 2.908485-1.462195 5.760983-1.580078 8.441406-3.1555463-2.402576-4.951172-5.337321-4.951172-8.441406s1.7956257-6.03883 4.951172-8.441406zm2.798828 11.769531c0.663569 1.568152 1.440573 3.136684 2.335938 4.6875 0.894937 1.550079 1.863031 3.007202 2.888671 4.365234-2.227613-0.678632-4.25408-1.545402-5.996093-2.572265-0.01817-2.022543 0.245372-4.211281 0.771484-6.480469zm32.4375 0c0.526173 2.269329 0.787701 4.457809 0.769531 6.480469-1.742149 1.026768-3.768392 1.893745-5.996093 2.572265 1.025647-1.358041 1.993726-2.815143 2.888671-4.365234 0.895049-1.550271 1.674474-3.119898 2.337891-4.6875zm-33.039062 8.919922c2.380103 1.237835 5.117233 2.205602 8.101562 2.853515 2.052405 2.260126 4.256028 4.145685 6.517578 5.587891-3.657685 1.531273-7.095251 1.620249-9.783203 0.068359-2.688664-1.5523-4.333319-4.574732-4.835937-8.509765zm33.638671 0c-0.502242 3.934815-2.145321 6.957466-4.833984 8.509765-2.68841 1.552155-6.12835 1.463457-9.787109-0.068359 2.261754-1.442047 4.464942-3.327763 6.517578-5.587891 2.985138-0.647773 5.722776-1.615545 8.103515-2.853515zm-22.044921 3.462891c1.689337 0.209462 3.436411 0.320312 5.226562 0.320312 1.789465 0 3.535874-0.111007 5.224609-0.320312-1.702434 1.590428-3.4656 2.910729-5.226562 3.90625-1.760232-0.995369-3.522889-2.316488-5.224609-3.90625z" style="fill:#ffffff"/>
 <path d="M 32 4 A 28 28 0 0 0 4 32 A 28 28 0 0 0 4.0175781 32.492188 A 28 28 0 0 1 32 5 A 28 28 0 0 1 59.974609 32.492188 A 28 28 0 0 0 60 32 A 28 28 0 0 0 32 4 z" style="fill:#ffffff;opacity:.2"/>
</svg>

<svg xmlns="http://www.w3.org/2000/svg" width="64" height="64" version="1.1" viewBox="0 0 64 64">
 <circle style="opacity:0.2" cx="32" cy="33" r="28"/>
 <circle style="fill:#3399cc" cx="32" cy="32" r="28"/>
 <path style="opacity:0.2" d="M 24.724609,9.054893 C 22.68011,9.007905 20.729697,9.4495746 18.984375,10.457237 15.22754,12.626245 13.292652,16.940262 13,22.033408 8.736972,24.833083 5.96875,28.663043 5.96875,33.000205 c 0,4.337162 2.768222,8.167122 7.03125,10.966797 0.292859,5.092691 2.229751,9.407309 5.986328,11.576172 3.756298,2.168699 8.457336,1.68691 13.013672,-0.605469 4.556024,2.291595 9.259756,2.773919 13.015625,0.605469 3.756354,-2.168732 5.689557,-6.482026 5.982422,-11.574219 4.26432,-2.799801 7.033203,-6.63082 7.033203,-10.96875 0,-4.33793 -2.768883,-8.168949 -7.033203,-10.96875 C 50.705353,16.938889 48.77219,12.62609 45.015625,10.457237 41.258254,8.2879174 36.553824,8.7687232 31.996094,11.062705 29.557312,9.835942 27.079796,9.1090215 24.724609,9.054893 Z m 14.550782,2.05664 c 1.722294,-0.04466 3.317464,0.324384 4.710937,1.128906 2.689089,1.552547 4.330075,4.575987 4.832031,8.511719 -2.380739,-1.237971 -5.118377,-2.205742 -8.103515,-2.853515 -2.052821,-2.260475 -4.255794,-4.147672 -6.517578,-5.589844 1.762929,-0.738291 3.477103,-1.155752 5.078125,-1.197266 z m -14.550782,0.002 c 1.599602,0.04168 3.312731,0.457874 5.074219,1.195313 -2.261506,1.442313 -4.465053,3.329441 -6.517578,5.589844 -2.984329,0.647914 -5.721459,1.61568 -8.101562,2.853515 0.502618,-3.935032 2.147273,-6.959419 4.835937,-8.511719 1.393473,-0.804522 2.987054,-1.171821 4.708984,-1.126953 z m 7.273438,2.269531 c 1.760214,0.995379 3.524678,2.316185 5.226562,3.90625 C 35.535874,17.079914 33.789465,16.968955 32,16.968955 c -1.790836,0 -3.538576,0.110692 -5.228516,0.320312 1.701788,-1.590241 3.466388,-2.910631 5.226563,-3.90625 z M 32,19.031455 c 2.672775,0 5.234451,0.268526 7.632812,0.744141 1.611985,1.839666 3.12816,3.92503 4.464844,6.240234 1.336658,2.315159 2.38486,4.668888 3.171875,6.984375 -0.787149,2.315336 -1.8355,4.669706 -3.171875,6.984375 -1.336641,2.315131 -2.851149,4.400932 -4.46289,6.240234 -2.398903,0.475853 -4.961289,0.744141 -7.634766,0.744141 -2.673477,0 -5.235863,-0.268288 -7.634766,-0.744141 -1.611798,-1.839344 -3.12816,-3.923077 -4.464843,-6.238281 -1.336658,-2.315159 -2.384675,-4.670519 -3.171875,-6.986328 0.787026,-2.315588 1.835157,-4.669112 3.171875,-6.984375 1.336637,-2.315124 2.852922,-4.400615 4.464843,-6.240234 C 26.764137,19.299743 29.326523,19.031455 32,19.031455 Z m -10.994141,1.587891 c -1.025733,1.358194 -1.993734,2.815155 -2.888671,4.365234 -0.895697,1.55139 -1.672303,3.120883 -2.335938,4.689453 -0.526572,-2.269822 -0.789491,-4.459552 -0.771484,-6.482422 1.742013,-1.026863 3.76848,-1.893633 5.996093,-2.572265 z m 21.986329,0 c 2.227701,0.67852 4.253944,1.545497 5.996093,2.572265 0.01799,2.02253 -0.243129,4.211064 -0.769531,6.480469 -0.663325,-1.567445 -1.440885,-3.135271 -2.335938,-4.685547 -0.894944,-1.550091 -1.864882,-3.008984 -2.890624,-4.367187 z m -14.892579,2.380859 -1.933593,8.490234 -3.365235,0.509766 -0.800781,3 3.486328,-0.529297 L 24,41.000205 h 14.5 l 1.400391,-4 h -8.990235 l 0.791016,-3.470703 3.498047,-0.529297 0.800781,-3 -3.619141,0.548828 1.71875,-7.548828 z m 22.916016,1.556641 c 3.15693,2.402886 4.953125,5.338547 4.953125,8.443359 0,3.104812 -1.796195,6.040473 -4.953125,8.443359 -0.117873,-2.680169 -0.648888,-5.533205 -1.580078,-8.441406 0.932179,-2.909672 1.461935,-5.763998 1.580078,-8.445312 z m -38.033203,0.002 c 0.118147,2.680234 0.648535,5.532912 1.580078,8.441406 -0.931355,2.908485 -1.462195,5.760983 -1.580078,8.441406 C 9.8268757,39.039035 8.03125,36.10429 8.03125,33.000205 c 0,-3.104085 1.7956257,-6.03883 4.951172,-8.441406 z M 15.78125,36.32833 c 0.663569,1.568152 1.440573,3.136684 2.335938,4.6875 0.894937,1.550079 1.863031,3.007202 2.888671,4.365234 -2.227613,-0.678632 -4.25408,-1.545402 -5.996093,-2.572265 -0.01817,-2.022543 0.245372,-4.211281 0.771484,-6.480469 z m 32.4375,0 c 0.526173,2.269329 0.787701,4.457809 0.769531,6.480469 -1.742149,1.026768 -3.768392,1.893745 -5.996093,2.572265 1.025647,-1.358041 1.993726,-2.815143 2.888671,-4.365234 0.895049,-1.550271 1.674474,-3.119898 2.337891,-4.6875 z m -33.039062,8.919922 c 2.380103,1.237835 5.117233,2.205602 8.101562,2.853515 2.052405,2.260126 4.256028,4.145685 6.517578,5.587891 -3.657685,1.531273 -7.095251,1.620249 -9.783203,0.06836 -2.688664,-1.5523 -4.333319,-4.574732 -4.835937,-8.509765 z m 33.638671,0 c -0.502242,3.934815 -2.145321,6.957466 -4.833984,8.509765 -2.68841,1.552155 -6.12835,1.463457 -9.787109,-0.06836 2.261754,-1.442047 4.464942,-3.327763 6.517578,-5.587891 2.985138,-0.647773 5.722776,-1.615545 8.103515,-2.853515 z m -22.044921,3.462891 c 1.689337,0.209462 3.436411,0.320312 5.226562,0.320312 1.789465,0 3.535874,-0.111007 5.224609,-0.320312 -1.702434,1.590428 -3.4656,2.910729 -5.226562,3.90625 -1.760232,-0.995369 -3.522889,-2.316488 -5.224609,-3.90625 z"/>
 <path style="fill:#ffffff" d="M 24.724609 8.0546875 C 22.68011 8.0076995 20.729697 8.4493691 18.984375 9.4570312 C 15.22754 11.62604 13.292652 15.940057 13 21.033203 C 8.736972 23.832878 5.96875 27.662838 5.96875 32 C 5.96875 36.337162 8.736972 40.167122 13 42.966797 C 13.292859 48.059488 15.229751 52.374106 18.986328 54.542969 C 22.742626 56.711668 27.443664 56.229879 32 53.9375 C 36.556024 56.229095 41.259756 56.711419 45.015625 54.542969 C 48.771979 52.374237 50.705182 48.060943 50.998047 42.96875 C 55.262367 40.168949 58.03125 36.33793 58.03125 32 C 58.03125 27.66207 55.262367 23.831051 50.998047 21.03125 C 50.705353 15.938684 48.77219 11.625885 45.015625 9.4570312 C 41.258254 7.2877119 36.553824 7.7685177 31.996094 10.0625 C 29.557312 8.8357365 27.079796 8.108816 24.724609 8.0546875 z M 39.275391 10.111328 C 40.997685 10.066668 42.592855 10.435712 43.986328 11.240234 C 46.675417 12.792781 48.316403 15.816221 48.818359 19.751953 C 46.43762 18.513982 43.699982 17.546211 40.714844 16.898438 C 38.662023 14.637963 36.45905 12.750766 34.197266 11.308594 C 35.960195 10.570303 37.674369 10.152842 39.275391 10.111328 z M 24.724609 10.113281 C 26.324211 10.154961 28.03734 10.571155 29.798828 11.308594 C 27.537322 12.750907 25.333775 14.638035 23.28125 16.898438 C 20.296921 17.546352 17.559791 18.514118 15.179688 19.751953 C 15.682306 15.816921 17.326961 12.792534 20.015625 11.240234 C 21.409098 10.435712 23.002679 10.068413 24.724609 10.113281 z M 31.998047 12.382812 C 33.758261 13.378191 35.522725 14.698997 37.224609 16.289062 C 35.535874 16.079709 33.789465 15.96875 32 15.96875 C 30.209164 15.96875 28.461424 16.079442 26.771484 16.289062 C 28.473272 14.698821 30.237872 13.378431 31.998047 12.382812 z M 32 18.03125 C 34.672775 18.03125 37.234451 18.299776 39.632812 18.775391 C 41.244797 20.615057 42.760972 22.700421 44.097656 25.015625 C 45.434314 27.330784 46.482516 29.684513 47.269531 32 C 46.482382 34.315336 45.434031 36.669706 44.097656 38.984375 C 42.761015 41.299506 41.246507 43.385307 39.634766 45.224609 C 37.235863 45.700462 34.673477 45.96875 32 45.96875 C 29.326523 45.96875 26.764137 45.700462 24.365234 45.224609 C 22.753436 43.385265 21.237074 41.301532 19.900391 38.986328 C 18.563733 36.671169 17.515716 34.315809 16.728516 32 C 17.515542 29.684412 18.563673 27.330888 19.900391 25.015625 C 21.237028 22.700501 22.753313 20.61501 24.365234 18.775391 C 26.764137 18.299538 29.326523 18.03125 32 18.03125 z M 21.005859 19.619141 C 19.980126 20.977335 19.012125 22.434296 18.117188 23.984375 C 17.221491 25.535765 16.444885 27.105258 15.78125 28.673828 C 15.254678 26.404006 14.991759 24.214276 15.009766 22.191406 C 16.751779 21.164543 18.778246 20.297773 21.005859 19.619141 z M 42.992188 19.619141 C 45.219889 20.297661 47.246132 21.164638 48.988281 22.191406 C 49.006271 24.213936 48.745152 26.40247 48.21875 28.671875 C 47.555425 27.10443 46.777865 25.536604 45.882812 23.986328 C 44.987868 22.436237 44.01793 20.977344 42.992188 19.619141 z M 28.099609 22 L 26.166016 30.490234 L 22.800781 31 L 22 34 L 25.486328 33.470703 L 24 40 L 38.5 40 L 39.900391 36 L 30.910156 36 L 31.701172 32.529297 L 35.199219 32 L 36 29 L 32.380859 29.548828 L 34.099609 22 L 28.099609 22 z M 51.015625 23.556641 C 54.172555 25.959527 55.96875 28.895188 55.96875 32 C 55.96875 35.104812 54.172555 38.040473 51.015625 40.443359 C 50.897752 37.76319 50.366737 34.910154 49.435547 32.001953 C 50.367726 29.092281 50.897482 26.237955 51.015625 23.556641 z M 12.982422 23.558594 C 13.100569 26.238828 13.630957 29.091506 14.5625 32 C 13.631145 34.908485 13.100305 37.760983 12.982422 40.441406 C 9.8268757 38.03883 8.03125 35.104085 8.03125 32 C 8.03125 28.895915 9.8268757 25.96117 12.982422 23.558594 z M 15.78125 35.328125 C 16.444819 36.896277 17.221823 38.464809 18.117188 40.015625 C 19.012125 41.565704 19.980219 43.022827 21.005859 44.380859 C 18.778246 43.702227 16.751779 42.835457 15.009766 41.808594 C 14.991596 39.786051 15.255138 37.597313 15.78125 35.328125 z M 48.21875 35.328125 C 48.744923 37.597454 49.006451 39.785934 48.988281 41.808594 C 47.246132 42.835362 45.219889 43.702339 42.992188 44.380859 C 44.017835 43.022818 44.985914 41.565716 45.880859 40.015625 C 46.775908 38.465354 47.555333 36.895727 48.21875 35.328125 z M 15.179688 44.248047 C 17.559791 45.485882 20.296921 46.453649 23.28125 47.101562 C 25.333655 49.361688 27.537278 51.247247 29.798828 52.689453 C 26.141143 54.220726 22.703577 54.309702 20.015625 52.757812 C 17.326961 51.205512 15.682306 48.18308 15.179688 44.248047 z M 48.818359 44.248047 C 48.316117 48.182862 46.673038 51.205513 43.984375 52.757812 C 41.295965 54.309967 37.856025 54.221269 34.197266 52.689453 C 36.45902 51.247406 38.662208 49.36169 40.714844 47.101562 C 43.699982 46.453789 46.43762 45.486017 48.818359 44.248047 z M 26.773438 47.710938 C 28.462775 47.9204 30.209849 48.03125 32 48.03125 C 33.789465 48.03125 35.535874 47.920243 37.224609 47.710938 C 35.522175 49.301366 33.759009 50.621667 31.998047 51.617188 C 30.237815 50.621819 28.475158 49.3007 26.773438 47.710938 z"/>
 <path style="opacity:0.2;fill:#ffffff" d="M 32 4 A 28 28 0 0 0 4 32 A 28 28 0 0 0 4.0175781 32.492188 A 28 28 0 0 1 32 5 A 28 28 0 0 1 59.974609 32.492188 A 28 28 0 0 0 60 32 A 28 28 0 0 0 32 4 z"/>
</svg>
